ALTDEU
CUT[Trinkreime]
REG[Europa, Mitteleuropa, Deutschland]
TRD[]
FKT[]
SIG[A0323]
KEY[A0323   02  F 3/2]
MEL[5  5_5  6_6  5_5  3_
    1  5_5  6_6  5_5  3_
    5  432  3_5  432  1_ //]
BEM[]
MEL_SEM[0 0 2 0 -2 0 -3 -4 7 0 2 0 -2 0 -3 3 -2 -1 -2 2 3 -2 -1 -2 -2]
MEL_RAW[5  55  66  55  3
    1  55  66  55  3
    5  432  35  432  1]
NO_REP[5653
    15653
    5432354321]
RTM[x  x_x  x_x  x_x  x_
    x  x_x  x_x  x_x  x_
    x  xxx  x_x  xxx  x_]
SCL_DEG[123456]
SCL_SEM[2 2 1 2 2]

